svgs/duotone/campfire.svg

<svg xmlns="http://www.w3.org/2000/svg" viewBox="0 0 512 512"><!--! Font Awesome Pro 6.3.0 by @fontawesome - https://fontawesome.com License - https://fontawesome.com/license (Commercial License) Copyright 2023 Fonticons, Inc. --><defs><style>.fa-secondary{opacity:.4}</style></defs><path class="fa-primary" d="M510.1 490.8C505.5 503.8 493.2 512 480 512c-3.562 0-7.219-.5938-10.75-1.875L256 433.1l-213.3 76.16C39.22 511.4 35.56 512 32 512c-13.16 0-25.47-8.156-30.12-21.25c-5.969-16.62 2.719-34.94 19.38-40.88L160.9 400l-139.7-49.88c-16.66-5.938-25.34-24.25-19.38-40.88c5.906-16.66 24.25-25.44 40.88-19.38L256 366l213.3-76.16c16.53-6.031 34.97 2.719 40.88 19.38c5.969 16.62-2.719 34.94-19.38 40.88L351.1 400l139.7 49.88C507.4 455.8 516.1 474.1 510.1 490.8z"/><path class="fa-secondary" d="M320 32c-13.38 12-25.5 24.75-36.13 37.5C266.4 45.1 244.6 22.25 220 0c-63.13 57-108 131.2-108 176c0 79.5 64.5 144 144 144s144-64.5 144-144C400 142.8 366.6 74 320 32zM294.3 228.5c-10.84 7.873-24.23 12.58-38.65 12.58c-36.1 0-65.44-24.95-65.44-65.44c0-20.14 12.17-37.94 36.4-68.3c3.477 4.193 49.39 65.44 49.39 65.44l29.35-34.87c2.045 3.578 3.988 7.055 5.625 10.43C324.7 175.6 318.9 210.5 294.3 228.5z"/></svg>

<svg xmlns="http://www.w3.org/2000/svg" viewBox="0 0 512 512"><!-- Font Awesome Pro 6.0.0-alpha2 by @fontawesome - https://fontawesome.com License - https://fontawesome.com/license (Commercial License) --><defs><style>.fa-secondary{opacity:.4}</style></defs><path d="M320.012 32.001C306.635 44.001 294.51 56.752 283.885 69.502C266.383 46.001 244.633 22.251 220.006 0C156.877 57.002 112 131.254 112 176.005C112 255.508 176.504 320.01 256.008 320.01S400.016 255.508 400.016 176.005C400.016 142.754 366.639 74.002 320.012 32.001ZM294.34 228.55C283.5 236.423 270.105 241.127 255.688 241.127C219.592 241.127 190.246 216.179 190.246 175.687C190.246 155.544 202.414 137.75 226.648 107.382C230.125 111.576 276.037 172.824 276.037 172.824L305.383 137.955C307.428 141.534 309.371 145.01 311.008 148.385C324.709 175.584 318.881 210.553 294.34 228.55Z" class="fa-secondary"/><path d="M510.134 490.75C505.478 503.844 493.165 512 480.009 512C476.446 512 472.79 511.406 469.259 510.125L256.009 433.965L42.759 510.125C39.228 511.406 35.571 512 32.009 512C18.853 512 6.54 503.844 1.884 490.75C-4.085 474.125 4.603 455.812 21.259 449.875L160.909 400L21.259 350.125C4.603 344.187 -4.085 325.875 1.884 309.25C7.79 292.594 26.134 283.812 42.759 289.875L256.009 366.035L469.259 289.875C485.79 283.844 504.228 292.594 510.134 309.25C516.103 325.875 507.415 344.188 490.759 350.125L351.108 400L490.759 449.875C507.415 455.812 516.103 474.125 510.134 490.75Z" class="fa-primary"/></svg>
